X:97
T:Maiden fond of Mirth
T:Nighean donn an t-sugraidh
R:Slow Air
S:Simon Fraser Collection
N:No.46
O:Scottish
M:C
L:1/8
Q:1/4=100
K:A Minor
B|c2 B>A A2 Bd|e2 d>B A2 d>c|B2 AG E2 G>E|D2 E^G A2 AB|
c2 d>c B2 AB|e2 d>B A2 d>c|B2 AG E2 G>E|D2 E^G (A2 A)||
B|c2 d>c B2 g>^f|e2 g>B A2 d>c|B2 dD E2 G>E|D2 E^G A2 A>G|
A>Bc>c c2 c>d|e>cd>B G2 AB|g2 e>G E2 G>E|D2 E^G A2 A||

